X: 4
T: The Boys Of Portaferry
R: reel
M: 4/4
L: 1/8
K: Emin
|:G2 BG Ac BA | G2AG GE DE | G2 BG AB cd | dB GB Ac BA |G2 BG Ac BA | G2AG GE DE | G2 BG AB cd | dB AB G3 A |(3Bcd gd ed gd | Bd gd eg dc | Bd gd ed ef | ge dB cA BA |(3Bcd gd ed gd | Bd gd eg dc | Bd gd ed ef | ge dB cA BA :|


Tune 1436	Setting 1436

